src/icons/svg/assets.svg

<?xml version="1.0" encoding="UTF-8"?>
<svg width="40px" height="35px" viewBox="0 0 40 35" version="1.1" xmlns="http://www.w3.org/2000/svg"
>
    <path d="M20,34.1025641 C18.974359,34.1025641 18.2051282,33.5897436 17.6923077,32.8205128 L17.4358974,32.5641025 L8.97435897,32.5641025 C8.46153847,32.5641025 7.69230768,32.051282 7.69230771,31.2820513 C7.69230775,30.5128205 8.46153847,30.2564103 8.97435897,30.2564102 L17.6923077,30.2564102 C17.9487179,29.7435897 18.2051282,29.4871795 18.7179487,29.2307692 L18.974359,28.974359 L18.974359,24.8717949 L1.02564105,24.8717949 C2.91305441e-15,24.8717949 2.91305441e-15,24.3589744 2.91305441e-15,24.1025641 L2.91305441e-15,0.512820504 C2.91305441e-15,0.256410252 0.512820504,0 1.02564105,0 L38.974359,0 C40,0 40,0.512820504 40,0.512820504 L40,24.3589744 C40,24.6153846 39.4871795,25.1282051 38.974359,25.1282051 L21.025641,25.1282051 L21.025641,28.974359 L21.2820513,29.2307692 C21.7948718,29.4871795 22.051282,29.7435897 22.3076923,30.2564102 L22.5641026,30.5128205 L31.2820513,30.5128205 C31.7948718,30.5128205 32.3076923,31.025641 32.3076923,31.7948718 C32.3076923,32.5641026 31.7948718,32.8205128 31.2820513,32.8205128 L22.3076923,32.8205128 C21.7948718,33.8461538 21.025641,34.1025641 20,34.1025641 Z M2.05128205,22.8205128 L37.9487179,22.8205128 L37.9487179,2.30769231 L2.05128205,2.05128205 L2.05128205,11.2820513 L36.6666666,11.2820513 L36.6666666,13.3333333 L2.05128205,13.3333333 L2.05128205,22.8205128 L2.05128205,22.8205128 Z M33.3333333,19.4871795 L33.3333333,17.1794872 L35.3846154,17.1794872 L35.3846154,19.4871795 L33.3333333,19.4871795 Z M33.3333333,7.94871796 L33.3333333,5.64102566 L35.3846154,5.64102566 L35.3846154,7.94871796 L33.3333333,7.94871796 Z"
          id="形状"></path>
    <path d="M20,34.1025641 C18.974359,34.1025641 18.2051282,33.5897436 17.6923077,32.8205128 L17.4358974,32.5641025 L8.97435897,32.5641025 C8.46153847,32.5641025 7.94871796,32.051282 7.94871796,31.5384615 C7.94871796,31.025641 8.46153847,30.5128205 8.97435897,30.5128205 L17.4358974,30.5128205 L17.6923077,30.2564102 C17.948718,29.7435897 18.2051282,29.4871795 18.7179487,29.2307692 L18.974359,28.974359 L18.974359,24.6153846 L21.025641,24.6153846 L21.025641,28.974359 L21.2820513,29.2307692 C21.7948718,29.4871795 22.051282,29.7435897 22.3076923,30.2564102 L22.5641026,30.5128205 L31.2820513,30.5128205 C31.7948718,30.5128205 32.3076923,31.025641 32.3076923,31.5384615 C32.3076923,32.0512821 31.7948718,32.5641025 31.2820513,32.5641025 L22.5641026,32.5641025 L22.3076923,32.8205128 C21.7948718,33.5897435 21.025641,34.1025641 20,34.1025641 Z M22.0512821,24.8717949 L1.02564105,24.8717949 C0.256410288,24.8717949 0,24.6153846 0,24.3589744 L0,0.512820504 C0,0.256410252 0.512820504,0 1.02564105,0 L38.974359,0 C39.7435897,0 40,0.256410252 40,0.512820504 L40,24.3589744 C40,24.6153846 39.4871795,24.8717949 38.974359,24.8717949 L22.0512821,24.8717949 Z M2.05128205,22.8205128 L37.9487179,22.8205128 L37.9487179,2.05128205 L2.05128205,2.05128205 L2.05128205,11.2820513 L36.6666666,11.2820513 L36.6666666,13.3333333 L2.05128205,13.3333333 L2.05128205,22.8205128 L2.05128205,22.8205128 Z M33.3333333,19.2307692 L33.3333333,17.1794872 L35.3846154,17.1794872 L35.3846154,19.2307692 L33.3333333,19.2307692 Z M33.3333333,7.69230771 L33.3333333,5.64102566 L35.3846154,5.64102566 L35.3846154,7.69230771 L33.3333333,7.69230771 Z"
          id="形状"></path>
</svg>

<svg width="40" height="35" xmlns="http://www.w3.org/2000/svg"><path d="M20 34.103c-1.026 0-1.795-.513-2.308-1.282l-.256-.257H8.974c-.512 0-1.282-.513-1.282-1.282 0-.77.77-1.026 1.282-1.026h8.718c.257-.512.513-.769 1.026-1.025l.256-.257v-4.102H1.026C0 24.872 0 24.359 0 24.102V.513C0 .257.513 0 1.026 0h37.948C40 0 40 .513 40 .513v23.846c0 .256-.513.77-1.026.77H21.026v3.845l.256.257c.513.256.77.513 1.026 1.025l.256.257h8.718c.513 0 1.026.513 1.026 1.282 0 .77-.513 1.026-1.026 1.026h-8.974c-.513 1.025-1.282 1.282-2.308 1.282zM2.051 22.82H37.95V2.308L2.05 2.05v9.231h34.616v2.051H2.05v9.488zm31.282-3.334V17.18h2.052v2.308h-2.052zm0-11.538V5.64h2.052v2.308h-2.052z"/><path d="M20 34.103c-1.026 0-1.795-.513-2.308-1.282l-.256-.257H8.974c-.512 0-1.025-.513-1.025-1.026 0-.512.513-1.025 1.025-1.025h8.462l.256-.257c.257-.512.513-.769 1.026-1.025l.256-.257v-4.359h2.052v4.36l.256.256c.513.256.77.513 1.026 1.025l.256.257h8.718c.513 0 1.026.513 1.026 1.025 0 .513-.513 1.026-1.026 1.026h-8.718l-.256.257c-.513.769-1.282 1.282-2.308 1.282zm2.051-9.231H1.026c-.77 0-1.026-.257-1.026-.513V.513C0 .256.513 0 1.026 0h37.948C39.744 0 40 .256 40 .513v23.846c0 .256-.513.513-1.026.513H22.051zm-20-2.051H37.95V2.05H2.05v9.231h34.616v2.051H2.05v9.488zm31.282-3.59v-2.052h2.052v2.052h-2.052zm0-11.539V5.641h2.052v2.051h-2.052z"/></svg>
